humanity-icon-theme/Humanity/places/64/user-desktop.svg

<?xml version="1.0" encoding="UTF-8" standalone="no"?>
<!-- Created with Inkscape (http://www.inkscape.org/) -->
<svg
   xmlns:svg="http://www.w3.org/2000/svg"
   xmlns="http://www.w3.org/2000/svg"
   xmlns:xlink="http://www.w3.org/1999/xlink"
   version="1.0"
   width="64"
   height="64"
   id="svg9481">
  <defs
     id="defs9483">
    <linearGradient
       id="linearGradient5048-7">
      <stop
         id="stop5050-5"
         style="stop-color:#000000;stop-opacity:0"
         offset="0" />
      <stop
         id="stop5056-9"
         style="stop-color:#000000;stop-opacity:1"
         offset="0.5" />
      <stop
         id="stop5052-6"
         style="stop-color:#000000;stop-opacity:0"
         offset="1" />
    </linearGradient>
    <linearGradient
       id="linearGradient5060-6">
      <stop
         id="stop5062-3"
         style="stop-color:#000000;stop-opacity:1"
         offset="0" />
      <stop
         id="stop5064-1"
         style="stop-color:#000000;stop-opacity:0"
         offset="1" />
    </linearGradient>
    <linearGradient
       id="linearGradient8265-821-176-38-919-66-249">
      <stop
         id="stop2687"
         style="stop-color:#ffffff;stop-opacity:1"
         offset="0" />
      <stop
         id="stop2689"
         style="stop-color:#ffffff;stop-opacity:0"
         offset="1" />
    </linearGradient>
    <linearGradient
       id="linearGradient3282">
      <stop
         id="stop3284"
         style="stop-color:#000000;stop-opacity:1"
         offset="0" />
      <stop
         id="stop3286"
         style="stop-color:#000000;stop-opacity:0"
         offset="1" />
    </linearGradient>
    <linearGradient
       id="linearGradient2238">
      <stop
         id="stop2240"
         style="stop-color:#ffffff;stop-opacity:1"
         offset="0" />
      <stop
         id="stop2242"
         style="stop-color:#ffffff;stop-opacity:0"
         offset="1" />
    </linearGradient>
    <linearGradient
       x1="12.578789"
       y1="2.9137428"
       x2="12.578789"
       y2="43.810863"
       id="linearGradient2432"
       xlink:href="#linearGradient2238"
       gradientUnits="userSpaceOnUse"
       gradientTransform="matrix(1.3099701,0,0,1.2296538,0.5591281,6.2253163)" />
    <linearGradient
       x1="33.579403"
       y1="5.7086449"
       x2="33.579403"
       y2="16.323294"
       id="linearGradient2435"
       xlink:href="#linearGradient2545"
       gradientUnits="userSpaceOnUse"
       gradientTransform="matrix(1.1045659,0,0,0.8795917,-3.5961863,3.8105009)" />
    <linearGradient
       x1="16.91585"
       y1="7.0006418"
       x2="16.91585"
       y2="14"
       id="linearGradient2437"
       xlink:href="#linearGradient2538"
       gradientUnits="userSpaceOnUse"
       gradientTransform="matrix(1.3555561,0,0,1.3334759,-0.5333464,-0.5019254)" />
    <linearGradient
       x1="24.682861"
       y1="9.2416716"
       x2="24.682861"
       y2="13.523027"
       id="linearGradient2440"
       xlink:href="#linearGradient3282"
       gradientUnits="userSpaceOnUse"
       gradientTransform="matrix(1.3040608,0,0,0.7020128,0.7114208,11.512229)" />
    <linearGradient
       x1="16.626165"
       y1="15.298182"
       x2="20.054544"
       y2="24.627615"
       id="linearGradient2443"
       xlink:href="#linearGradient8265-821-176-38-919-66-249"
       gradientUnits="userSpaceOnUse"
       gradientTransform="matrix(1.3061224,0,0,1.3934395,0.6530599,1.6829081)" />
    <radialGradient
       cx="26.616697"
       cy="-2.0644982"
       r="23"
       fx="26.616697"
       fy="-2.0644982"
       id="radialGradient2446"
       xlink:href="#linearGradient3242-593-605-251-305"
       gradientUnits="userSpaceOnUse"
       gradientTransform="matrix(-2.4654702e-8,-1.4400882,1.893347,0,48.219679,78.498576)" />
    <linearGradient
       x1="10.014208"
       y1="44.960102"
       x2="10.014208"
       y2="2.8764627"
       id="linearGradient2448"
       xlink:href="#linearGradient3332-412-419-652-471"
       gradientUnits="userSpaceOnUse"
       gradientTransform="matrix(1.2978952,0,0,1.2209155,0.8505437,5.1828923)" />
    <radialGradient
       cx="605.71429"
       cy="486.64789"
       r="117.14286"
       fx="605.71429"
       fy="486.64789"
       id="radialGradient2451"
       xlink:href="#linearGradient5060-6"
       gradientUnits="userSpaceOnUse"
       gradientTransform="matrix(-8.7449735e-2,0,0,2.470588e-2,63.589633,47.94164)" />
    <radialGradient
       cx="605.71429"
       cy="486.64789"
       r="117.14286"
       fx="605.71429"
       fy="486.64789"
       id="radialGradient2454"
       xlink:href="#linearGradient5060-6"
       gradientUnits="userSpaceOnUse"
       gradientTransform="matrix(8.7449735e-2,0,0,2.470588e-2,0.4103793,47.94164)" />
    <linearGradient
       x1="302.85715"
       y1="366.64789"
       x2="302.85715"
       y2="609.50507"
       id="linearGradient2457"
       xlink:href="#linearGradient5048-7"
       gradientUnits="userSpaceOnUse"
       gradientTransform="matrix(8.7449735e-2,0,0,2.470588e-2,0.3931692,47.94164)" />
    <linearGradient
       id="linearGradient2545">
      <stop
         id="stop2547"
         style="stop-color:#fdfdf8;stop-opacity:1"
         offset="0" />
      <stop
         id="stop2549"
         style="stop-color:#d6d3b4;stop-opacity:1"
         offset="1" />
    </linearGradient>
    <linearGradient
       id="linearGradient2538">
      <stop
         id="stop2540"
         style="stop-color:#aeae94;stop-opacity:1"
         offset="0" />
      <stop
         id="stop2542"
         style="stop-color:#626337;stop-opacity:1"
         offset="1" />
    </linearGradient>
    <linearGradient
       id="linearGradient3242-593-605-251-305">
      <stop
         id="stop2749"
         style="stop-color:#d78ec1;stop-opacity:1"
         offset="0" />
      <stop
         id="stop2751"
         style="stop-color:#c564be;stop-opacity:1"
         offset="0.26238" />
      <stop
         id="stop2753"
         style="stop-color:#9d3ea4;stop-opacity:1"
         offset="0.66093999" />
      <stop
         id="stop2755"
         style="stop-color:#5e2c73;stop-opacity:1"
         offset="1" />
    </linearGradient>
    <linearGradient
       id="linearGradient3332-412-419-652-471">
      <stop
         id="stop2759"
         style="stop-color:#650d5c;stop-opacity:1"
         offset="0" />
      <stop
         id="stop2761"
         style="stop-color:#ad53a5;stop-opacity:1"
         offset="1" />
    </linearGradient>
    <radialGradient
       cx="26.616697"
       cy="-2.0644982"
       r="23"
       fx="26.616697"
       fy="-2.0644982"
       id="radialGradient3365"
       xlink:href="#linearGradient3242-593-605-251-305"
       gradientUnits="userSpaceOnUse"
       gradientTransform="matrix(-1.8187668e-8,-1.0656573,1.3967139,0,-21.034814,66.558833)" />
    <linearGradient
       x1="10.014208"
       y1="44.960102"
       x2="10.014208"
       y2="2.8764627"
       id="linearGradient3367"
       xlink:href="#linearGradient3332-412-419-652-471"
       gradientUnits="userSpaceOnUse"
       gradientTransform="matrix(0.9574517,0,0,0.9034707,-55.978822,12.30563)" />
    <radialGradient
       cx="26.616697"
       cy="-2.0644982"
       r="23"
       fx="26.616697"
       fy="-2.0644982"
       id="radialGradient3386"
       xlink:href="#linearGradient3242-593-605-251-305"
       gradientUnits="userSpaceOnUse"
       gradientTransform="matrix(-2.4654664e-8,-1.4400975,1.893344,0,-49.869373,81.367161)" />
    <linearGradient
       x1="10.014208"
       y1="44.960102"
       x2="10.014208"
       y2="2.8764627"
       id="linearGradient3388"
       xlink:href="#linearGradient3332-412-419-652-471"
       gradientUnits="userSpaceOnUse"
       gradientTransform="matrix(1.2978932,0,0,1.2209234,-97.238436,8.0509995)" />
  </defs>
  <rect
     width="42.225723"
     height="6"
     x="10.887136"
     y="57"
     id="rect2512"
     style="opacity:0.3;fill:url(#linearGradient2457);fill-opacity:1;fill-rule:nonzero;stroke:none;stroke-width:1;marker:none;visibility:visible;display:inline;overflow:visible" />
  <path
     d="M 53.112864,57.000208 C 53.112864,57.000208 53.112864,62.999875 53.112864,62.999875 C 57.616308,63.011165 64.000001,61.655656 63.999998,59.999656 C 63.999998,58.343656 58.974495,57.000208 53.112864,57.000208 z"
     id="path2514"
     style="opacity:0.3;fill:url(#radialGradient2454);fill-opacity:1;fill-rule:nonzero;stroke:none;stroke-width:1;marker:none;visibility:visible;display:inline;overflow:visible" />
  <path
     d="M 10.887137,57.000208 C 10.887137,57.000208 10.887137,62.999875 10.887137,62.999875 C 6.3836916,63.011165 0,61.655656 0,59.999656 C 0,58.343656 5.0255048,57.000208 10.887137,57.000208 z"
     id="path2516"
     style="opacity:0.3;fill:url(#radialGradient2451);fill-opacity:1;fill-rule:nonzero;stroke:none;stroke-width:1;marker:none;visibility:visible;display:inline;overflow:visible" />
  <rect
     width="60.997868"
     height="49.99749"
     rx="3"
     ry="3"
     x="1.5010662"
     y="9.5010815"
     id="rect2573"
     style="fill:url(#radialGradient2446);fill-opacity:1;fill-rule:evenodd;stroke:url(#linearGradient2448);stroke-width:1.00213289;stroke-linecap:round;stroke-linejoin:round;stroke-miterlimit:4;stroke-dasharray:none;stroke-dashoffset:0;stroke-opacity:1" />
  <path
     d="M 4.8571428,10 C 3.2789846,10 2,11.364489 2,13.04815 L 2,35.343181 C 2.003619,35.530743 2.080715,35.708111 2.2125704,35.832232 C 2.3444259,35.956354 2.5189864,36.015879 2.6938768,35.996357 L 61.469386,26.068099 C 61.771727,26.017229 61.995771,25.741432 62,25.414924 L 62,13.04815 C 62,11.364489 60.721014,10 59.142856,10 L 4.8571428,10 z"
     id="path2603"
     style="opacity:0.2;fill:url(#linearGradient2443);fill-opacity:1;fill-rule:evenodd;stroke:none;stroke-width:1.00213289;stroke-linecap:round;stroke-linejoin:round;stroke-miterlimit:4;stroke-dasharray:none;stroke-dashoffset:0;stroke-opacity:1" />
  <rect
     width="60"
     height="3"
     rx="0"
     ry="0"
     x="2"
     y="18"
     id="rect1436"
     style="opacity:0.2;fill:url(#linearGradient2440);fill-opacity:1;fill-rule:evenodd;stroke:none;stroke-width:1.00000012;stroke-linecap:butt;stroke-linejoin:miter;marker:none;marker-start:none;marker-mid:none;marker-end:none;stroke-miterlimit:4;stroke-dasharray:none;stroke-dashoffset:0;stroke-opacity:1;visibility:visible;display:inline;overflow:visible" />
  <path
     d="M 5.0829535,9.4999999 C 5.0829535,9.4999999 59.262894,9.5114522 59.262894,9.5114522 C 61.384237,9.5114522 62.500012,10.819445 62.500012,12.680435 C 62.500012,12.680435 62.500012,17.5 62.500012,17.5 C 62.500012,17.5 1.4999879,17.5 1.4999879,17.5 C 1.4999879,17.5 1.4999878,12.592489 1.4999878,12.592489 C 1.4999878,10.608916 2.6548613,9.4999999 5.0829535,9.4999999 z"
     id="rect2311"
     style="fill:url(#linearGradient2435);fill-opacity:1;fill-rule:evenodd;stroke:url(#linearGradient2437);stroke-width:1;stroke-linecap:butt;stroke-linejoin:miter;marker:none;marker-start:none;marker-mid:none;marker-end:none;stroke-miterlimit:4;stroke-dasharray:none;stroke-dashoffset:0;stroke-opacity:1;visibility:visible;display:inline;overflow:visible" />
  <rect
     width="58.999996"
     height="48"
     rx="1.9999999"
     ry="1.9999999"
     x="2.5"
     y="10.5"
     id="rect2601"
     style="opacity:0.4;fill:none;fill-opacity:1;fill-rule:evenodd;stroke:url(#linearGradient2432);stroke-width:1;stroke-linecap:round;stroke-linejoin:round;stroke-miterlimit:4;stroke-dasharray:none;stroke-dashoffset:0;stroke-opacity:1" />
  <path
     d="M 6.4999607,22.499961 C 7.9703659,22.499961 9.9536138,22.499961 11.424021,22.499961 C 11.681962,22.607824 13.138167,23.921863 13.500023,24.772716 C 13.500023,27.376888 13.500039,29.895864 13.500039,32.500039 C 11.361117,32.500039 8.6388813,32.500039 6.4999607,32.500039 C 6.4999607,29.166679 6.4999607,25.83332 6.4999607,22.499961 z"
     id="path4160"
     style="fill:#f2f2f2;fill-opacity:1;stroke:#cccccc;stroke-width:0.99992162;stroke-linecap:butt;stroke-linejoin:round;stroke-miterlimit:4;stroke-dasharray:none;stroke-dashoffset:0;stroke-opacity:1;display:inline" />
  <path
     d="M 6.4999607,37.499961 C 7.9703659,37.499961 9.9536138,37.499961 11.424021,37.499961 C 11.681962,37.607825 13.138167,38.921863 13.500023,39.772716 C 13.500023,42.376888 13.500039,44.895864 13.500039,47.500039 C 11.361117,47.500039 8.6388813,47.500039 6.4999607,47.500039 C 6.4999607,44.16668 6.4999607,40.83332 6.4999607,37.499961 z"
     id="path4156"
     style="fill:#f2f2f2;fill-opacity:1;stroke:#cccccc;stroke-width:0.99992162;stroke-linecap:butt;stroke-linejoin:round;stroke-miterlimit:4;stroke-dasharray:none;stroke-dashoffset:0;stroke-opacity:1;display:inline" />
</svg>

<?xml version="1.0" encoding="UTF-8" standalone="no"?>
<!-- Created with Inkscape (http://www.inkscape.org/) -->
<svg id="svg9481" xmlns="http://www.w3.org/2000/svg" height="64" width="64" version="1.0" xmlns:xlink="http://www.w3.org/1999/xlink">
 <defs id="defs9483">
  <linearGradient id="linearGradient5060-6">
   <stop id="stop5062-3" offset="0"/>
   <stop id="stop5064-1" style="stop-opacity:0" offset="1"/>
  </linearGradient>
  <linearGradient id="linearGradient2432" y2="43.811" gradientUnits="userSpaceOnUse" x2="12.579" gradientTransform="matrix(1.31 0 0 1.2297 .55913 6.2253)" y1="2.9137" x1="12.579">
   <stop id="stop2240" style="stop-color:#fff" offset="0"/>
   <stop id="stop2242" style="stop-color:#fff;stop-opacity:0" offset="1"/>
  </linearGradient>
  <linearGradient id="linearGradient2435" y2="16.323" gradientUnits="userSpaceOnUse" x2="33.579" gradientTransform="matrix(1.1046 0 0 .87959 -3.5962 3.8105)" y1="5.7086" x1="33.579">
   <stop id="stop2547" style="stop-color:#fdfdf8" offset="0"/>
   <stop id="stop2549" style="stop-color:#d6d3b4" offset="1"/>
  </linearGradient>
  <linearGradient id="linearGradient2437" y2="14" gradientUnits="userSpaceOnUse" x2="16.916" gradientTransform="matrix(1.3556 0 0 1.3335 -.53335 -.50193)" y1="7.0006" x1="16.916">
   <stop id="stop2540" style="stop-color:#aeae94" offset="0"/>
   <stop id="stop2542" style="stop-color:#626337" offset="1"/>
  </linearGradient>
  <linearGradient id="linearGradient2440" y2="13.523" gradientUnits="userSpaceOnUse" x2="24.683" gradientTransform="matrix(1.3041 0 0 .70201 .71142 11.512)" y1="9.2417" x1="24.683">
   <stop id="stop3284" offset="0"/>
   <stop id="stop3286" style="stop-opacity:0" offset="1"/>
  </linearGradient>
  <linearGradient id="linearGradient2443" y2="24.628" gradientUnits="userSpaceOnUse" x2="20.055" gradientTransform="matrix(1.3061 0 0 1.3934 .65306 1.6829)" y1="15.298" x1="16.626">
   <stop id="stop2687" style="stop-color:#fff" offset="0"/>
   <stop id="stop2689" style="stop-color:#fff;stop-opacity:0" offset="1"/>
  </linearGradient>
  <radialGradient id="radialGradient2446" gradientUnits="userSpaceOnUse" cy="-2.0645" cx="26.617" gradientTransform="matrix(-2.4655e-8 -1.4401 1.8933 0 48.22 78.499)" r="23">
   <stop id="stop2749" style="stop-color:#d78ec1" offset="0"/>
   <stop id="stop2751" style="stop-color:#c564be" offset=".26238"/>
   <stop id="stop2753" style="stop-color:#9d3ea4" offset=".66094"/>
   <stop id="stop2755" style="stop-color:#5e2c73" offset="1"/>
  </radialGradient>
  <linearGradient id="linearGradient2448" y2="2.8765" gradientUnits="userSpaceOnUse" x2="10.014" gradientTransform="matrix(1.2979 0 0 1.2209 .85054 5.1829)" y1="44.96" x1="10.014">
   <stop id="stop2759" style="stop-color:#650d5c" offset="0"/>
   <stop id="stop2761" style="stop-color:#ad53a5" offset="1"/>
  </linearGradient>
  <radialGradient id="radialGradient2451" xlink:href="#linearGradient5060-6" gradientUnits="userSpaceOnUse" cy="486.65" cx="605.71" gradientTransform="matrix(-.087450 0 0 .024706 63.59 47.942)" r="117.14"/>
  <radialGradient id="radialGradient2454" xlink:href="#linearGradient5060-6" gradientUnits="userSpaceOnUse" cy="486.65" cx="605.71" gradientTransform="matrix(.087450 0 0 .024706 .41038 47.942)" r="117.14"/>
  <linearGradient id="linearGradient2457" y2="609.51" gradientUnits="userSpaceOnUse" x2="302.86" gradientTransform="matrix(.087450 0 0 .024706 .39317 47.942)" y1="366.65" x1="302.86">
   <stop id="stop5050-5" style="stop-opacity:0" offset="0"/>
   <stop id="stop5056-9" offset=".5"/>
   <stop id="stop5052-6" style="stop-opacity:0" offset="1"/>
  </linearGradient>
 </defs>
 <rect id="rect2512" style="opacity:.3;fill:url(#linearGradient2457)" height="6" width="42.226" y="57" x="10.887"/>
 <path id="path2514" style="opacity:.3;fill:url(#radialGradient2454)" d="m53.113 57v6c4.503 0.011 10.887-1.344 10.887-3s-5.026-3-10.887-3z"/>
 <path id="path2516" style="opacity:.3;fill:url(#radialGradient2451)" d="m10.887 57v6c-4.5033 0.011-10.887-1.344-10.887-3s5.0255-3 10.887-3z"/>
 <rect id="rect2573" style="stroke-linejoin:round;fill-rule:evenodd;stroke:url(#linearGradient2448);stroke-linecap:round;stroke-width:1.0021;fill:url(#radialGradient2446)" rx="3" ry="3" height="49.997" width="60.998" y="9.5011" x="1.5011"/>
 <path id="path2603" style="opacity:.2;fill:url(#linearGradient2443);fill-rule:evenodd" d="m4.8571 10c-1.5781 0-2.8571 1.364-2.8571 3.048v22.295c0.0036 0.188 0.0807 0.365 0.2126 0.489 0.1318 0.124 0.3064 0.184 0.4813 0.164l58.775-9.928c0.303-0.051 0.527-0.327 0.531-0.653v-12.367c0-1.684-1.279-3.048-2.857-3.048h-54.286z"/>
 <rect id="rect1436" style="opacity:.2;fill-rule:evenodd;fill:url(#linearGradient2440)" rx="0" ry="0" height="3" width="60" y="18" x="2"/>
 <path id="rect2311" style="fill-rule:evenodd;stroke:url(#linearGradient2437);fill:url(#linearGradient2435)" d="m5.083 9.5l54.18 0.0115c2.121 0 3.237 1.3075 3.237 3.1685v4.82h-61v-4.908c0-1.983 1.1549-3.092 3.583-3.092z"/>
 <rect id="rect2601" style="opacity:.4;stroke-linejoin:round;stroke:url(#linearGradient2432);stroke-linecap:round;fill:none" rx="2" ry="2" height="48" width="59" y="10.5" x="2.5"/>
 <path id="path4160" style="stroke-linejoin:round;stroke:#ccc;stroke-width:.99992;fill:#f2f2f2" d="m6.5 22.5h4.924c0.258 0.108 1.714 1.422 2.076 2.273v7.727h-7v-10z"/>
 <path id="path4156" style="stroke-linejoin:round;stroke:#ccc;stroke-width:.99992;fill:#f2f2f2" d="m6.5 37.5h4.924c0.258 0.108 1.714 1.422 2.076 2.273v7.727h-7v-10z"/>
</svg>
